src/svg/uf17a-windows.svg

<!-- Generated by IcoMoon.io -->
<svg version="1.1" xmlns="http://www.w3.org/2000/svg" width="30" height="32" viewBox="0 0 30 32">
<path d="M12.179 17.964v11.625l-12.179-1.679v-9.946h12.179zM12.179 4.696v11.768h-12.179v-10.089zM29.714 17.964v14.036l-16.196-2.232v-11.804h16.196zM29.714 2.286v14.179h-16.196v-11.946z"></path>
</svg>

<svg xmlns="http://www.w3.org/2000/svg" width="30" height="32"><path d="M12.179 17.964v11.625L0 27.91v-9.946h12.179zm0-13.268v11.768H0V6.375zm17.535 13.268V32l-16.196-2.232V17.964h16.196zm0-15.678v14.179H13.518V4.519z"/></svg>
